src/images/pages/welcome/cfd.svg

<svg width="48" height="48" viewBox="0 0 48 48" fill="none" xmlns="http://www.w3.org/2000/svg">
<path d="M0 12C0 5.37258 5.37258 0 12 0H36C42.6274 0 48 5.37258 48 12V36C48 42.6274 42.6274 48 36 48H12C5.37258 48 0 42.6274 0 36V12Z" fill="#33658A"/>
<path fill-rule="evenodd" clip-rule="evenodd" d="M14.25 7.5C17.9779 7.5 21 10.5221 21 14.25C21 17.9779 17.9779 21 14.25 21C10.5221 21 7.5 17.9779 7.5 14.25C7.5 10.5221 10.5221 7.5 14.25 7.5ZM14.25 10.5C12.1789 10.5 10.5 12.1789 10.5 14.25C10.5 16.3211 12.1789 18 14.25 18C16.3211 18 18 16.3211 18 14.25C18 12.1789 16.3211 10.5 14.25 10.5Z" fill="white"/>
<path fill-rule="evenodd" clip-rule="evenodd" d="M33.75 27C37.4779 27 40.5 30.0221 40.5 33.75C40.5 37.4779 37.4779 40.5 33.75 40.5C30.0221 40.5 27 37.4779 27 33.75C27 30.0221 30.0221 27 33.75 27ZM33.75 30.0001C31.679 30.0001 30 31.679 30 33.7501C30 35.8212 31.679 37.5001 33.75 37.5001C35.8211 37.5001 37.5 35.8212 37.5 33.7501C37.5 31.679 35.8211 30.0001 33.75 30.0001Z" fill="white"/>
<path d="M38.5607 9.43934C37.9749 8.85355 37.0251 8.85355 36.4393 9.43934L9.43934 36.4393L9.31456 36.5807C8.85702 37.1691 8.89861 38.0199 9.43934 38.5607C10.0251 39.1464 10.9749 39.1464 11.5607 38.5607L38.5607 11.5607L38.6854 11.4193C39.143 10.8309 39.1014 9.98007 38.5607 9.43934Z" fill="white"/>
</svg>

<svg width="48" height="48" fill="none" xmlns="http://www.w3.org/2000/svg"><path d="M0 12C0 5.373 5.373 0 12 0h24c6.627 0 12 5.373 12 12v24c0 6.627-5.373 12-12 12H12C5.373 48 0 42.627 0 36V12z" fill="#33658A"/><path fill-rule="evenodd" clip-rule="evenodd" d="M14.25 7.5a6.75 6.75 0 110 13.5 6.75 6.75 0 010-13.5zm0 3a3.75 3.75 0 100 7.5 3.75 3.75 0 000-7.5zM33.75 27a6.75 6.75 0 110 13.5 6.75 6.75 0 010-13.5zm0 3a3.75 3.75 0 100 7.5 3.75 3.75 0 000-7.5z" fill="#fff"/><path d="M38.56 9.44a1.5 1.5 0 00-2.12 0l-27 27-.125.14a1.5 1.5 0 002.246 1.98l27-27 .124-.14a1.5 1.5 0 00-.124-1.98z" fill="#fff"/></svg>
